storage/app/icons/phosphoricons/fill/hard-drives-fill.svg

<svg xmlns="http://www.w3.org/2000/svg" fill="currentColor" viewBox="0 0 256 256"><path d="M208 40H48a16 16 0 0 0-16 16v48a16 16 0 0 0 16 16h160a16 16 0 0 0 16-16V56a16 16 0 0 0-16-16m-28 52a12 12 0 1 1 12-12 12 12 0 0 1-12 12m28 44H48a16 16 0 0 0-16 16v48a16 16 0 0 0 16 16h160a16 16 0 0 0 16-16v-48a16 16 0 0 0-16-16m-28 52a12 12 0 1 1 12-12 12 12 0 0 1-12 12"/></svg>

<svg xmlns="http://www.w3.org/2000/svg" viewBox="0 0 256 256" fill="currentColor"><path d="M208,40H48A16,16,0,0,0,32,56v48a16,16,0,0,0,16,16H208a16,16,0,0,0,16-16V56A16,16,0,0,0,208,40ZM180,92a12,12,0,1,1,12-12A12,12,0,0,1,180,92Z"/><path d="M208,136H48a16,16,0,0,0-16,16v48a16,16,0,0,0,16,16H208a16,16,0,0,0,16-16V152A16,16,0,0,0,208,136Zm-28,52a12,12,0,1,1,12-12A12,12,0,0,1,180,188Z"/></svg>
